storage/app/icons/phosphoricons/fill/grid-nine-fill.svg

<svg xmlns="http://www.w3.org/2000/svg" fill="currentColor" viewBox="0 0 256 256"><path d="M84 52v40H28a4 4 0 0 1-4-4V64a16 16 0 0 1 16-16h40a4 4 0 0 1 4 4m16 152a4 4 0 0 0 4 4h48a4 4 0 0 0 4-4v-40h-56Zm-76-36v24a16 16 0 0 0 16 16h40a4 4 0 0 0 4-4v-40H28a4 4 0 0 0-4 4m0-56v32a4 4 0 0 0 4 4h56v-40H28a4 4 0 0 0-4 4m128-64h-48a4 4 0 0 0-4 4v40h56V52a4 4 0 0 0-4-4m76 60h-56v40h56a4 4 0 0 0 4-4v-32a4 4 0 0 0-4-4m-128 40h56v-40h-56ZM216 48h-40a4 4 0 0 0-4 4v40h56a4 4 0 0 0 4-4V64a16 16 0 0 0-16-16m12 116h-56v40a4 4 0 0 0 4 4h40a16 16 0 0 0 16-16v-24a4 4 0 0 0-4-4"/></svg>

<svg xmlns="http://www.w3.org/2000/svg" viewBox="0 0 256 256" fill="currentColor"><path d="M84,52V92H28a4,4,0,0,1-4-4V64A16,16,0,0,1,40,48H80A4,4,0,0,1,84,52Zm16,152a4,4,0,0,0,4,4h48a4,4,0,0,0,4-4V164H100ZM24,168v24a16,16,0,0,0,16,16H80a4,4,0,0,0,4-4V164H28A4,4,0,0,0,24,168Zm0-56v32a4,4,0,0,0,4,4H84V108H28A4,4,0,0,0,24,112ZM152,48H104a4,4,0,0,0-4,4V92h56V52A4,4,0,0,0,152,48Zm76,60H172v40h56a4,4,0,0,0,4-4V112A4,4,0,0,0,228,108ZM100,148h56V108H100ZM216,48H176a4,4,0,0,0-4,4V92h56a4,4,0,0,0,4-4V64A16,16,0,0,0,216,48Zm12,116H172v40a4,4,0,0,0,4,4h40a16,16,0,0,0,16-16V168A4,4,0,0,0,228,164Z"/></svg>
